badges/Java.svg

<svg height="24" viewBox="0 0 53 24" width="53" xmlns="http://www.w3.org/2000/svg" xmlns:xlink="http://www.w3.org/1999/xlink"><clipPath id="a"><path d="m0 0h16v16h-16z"/></clipPath><path d="m5.999 0h41.002q.1473 0 .2944.00722606.147.00722604.2936.02166074.1466.0144347.2922.0360433.1457.0216086.2901.0503389.1445.02873.2873.064513.1429.035783.2838.078533.1409.042749.2796.092362.1387.049613.2747.10597.1361.056356.2692.119321.1331.062965.263.132386.1299.069422.2562.145132.1263.07571.2488.157524.1224.08182.2407.16955.1183.08772.2321.18115.1139.09343.223.19232.1091.0989.2132.20304.1042.10413.2031.21325.0989.10912.1923.22295.0934.11384.1811.23213.0878.11829.1696.24073.0818.12245.1575.24877.0757.12631.1451.25619.0695.12988.1324.26301.063.13312.1193.26918.0564.13606.106.27472.0496.13866.0924.27958.0427.14093.0785.28378.0358.14286.0645.28729.0288.14444.0504.29011.0216.14568.036.29224.0144.14655.0217.29364.0072.14709.0072.29436v12.002q0 .1473-.0072.2944-.0073.147-.0217.2936-.0144.1466-.036.2922-.0216.1457-.0504.2901-.0287.1445-.0645.2873-.0358.1429-.0785.2838-.0428.1409-.0924.2796-.0496.1387-.106.2747-.0563.1361-.1193.2692-.0629.1331-.1324.263-.0694.1299-.1451.2562-.0757.1263-.1575.2488-.0818.1224-.1696.2407-.0877.1183-.1811.2321-.0934.1139-.1923.223-.0989.1091-.2031.2132-.1041.1042-.2132.2031-.1091.0989-.223.1923-.1138.0934-.2321.1811-.1183.0878-.2407.1696-.1225.0818-.2488.1575-.1263.0757-.2562.1451-.1299.0695-.263.1324-.1331.063-.2692.1193-.136.0564-.2747.106-.1387.0496-.2796.0924-.1409.0427-.2838.0785-.1428.0358-.2873.0645-.1444.0288-.2901.0504-.1456.0216-.2922.036-.1466.0144-.2936.0217-.1471.0072-.2944.0072h-41.002q-.14727 0-.29436-.0072-.14709-.0073-.29364-.0217-.14656-.0144-.29224-.036-.14567-.0216-.29011-.0504-.14443-.0287-.28729-.0645-.14285-.0358-.28378-.0785-.14092-.0428-.27958-.0924-.13866-.0496-.27472-.106-.13606-.0563-.26918-.1193-.13313-.0629-.26301-.1324-.12988-.0694-.25619-.1451-.12632-.0757-.24877-.1575-.12244-.0818-.24073-.1696-.11829-.0877-.23213-.1811-.11383-.0934-.22295-.1923-.10912-.0989-.21325-.2031-.10414-.1041-.20304-.2132-.09889-.1091-.19232-.223-.09342-.1138-.18115-.2321-.08773-.1183-.16955-.2407-.081814-.1225-.157524-.2488-.07571-.1263-.145132-.2562-.069421-.1299-.132386-.263-.062965-.1331-.119321-.2692-.056357-.136-.10597-.2747-.049613-.1387-.092362-.2796-.04275-.1409-.078533-.2838-.035783-.1428-.064513-.2873-.0287303-.1444-.0503389-.2901-.0216086-.1456-.0360433-.2922-.0144347-.1466-.02166074-.2936-.00722606-.1471-.00722606-.2944v-12.002q0-.14727.00722606-.29436.00722604-.14709.02166074-.29364.0144347-.14656.0360433-.29224.0216086-.14567.0503389-.29011.02873-.14443.064513-.28729.035783-.14285.078533-.28378.042749-.14092.092362-.27958.049613-.13866.10597-.27472.056356-.13606.119321-.26918.062965-.13313.132386-.26301.069422-.12988.145132-.25619.07571-.12632.157524-.24877.08182-.12244.16955-.24073.08772-.11829.18115-.23213.09343-.11383.19232-.22295.0989-.10912.20304-.21325.10413-.10414.21325-.20304.10912-.09889.22295-.19232.11384-.09342.23213-.18115.11829-.08773.24073-.16955.12245-.081814.24877-.157524.12631-.07571.25619-.145132.12988-.069421.26301-.132386.13312-.062965.26918-.119321.13606-.056357.27472-.10597.13866-.049613.27958-.092362.14093-.04275.28378-.078533.14286-.035783.28729-.064513.14444-.0287303.29011-.0503389.14568-.0216086.29224-.0360433.14655-.0144347.29364-.02166074.14709-.00722606.29436-.00722606z" fill="#1565c0" fill-rule="evenodd"/><path d="m5.999 2h12.002q.1965 0 .392.01926.1955.01925.3882.05758.1927.03833.3806.09536.188.05702.3696.13221.1815.07518.3547.16779.1733.09261.3366.20175.1634.10915.3152.23378.1519.12463.2908.26355.1389.13892.2636.29078.1246.15187.2337.31521.1092.16335.2018.33661.0926.17327.1678.35477.0752.1815.1322.3695.057.188.0954.38068.0383.19269.0575.3882.0193.19551.0193.39197v12.002q0 .1965-.0193.392-.0192.1955-.0575.3882-.0384.1927-.0954.3806-.057.188-.1322.3696-.0752.1815-.1678.3547-.0926.1733-.2018.3366-.1091.1634-.2337.3152-.1247.1519-.2636.2908-.1389.1389-.2908.2636-.1518.1246-.3152.2337-.1633.1092-.3366.2018-.1732.0926-.3547.1678-.1816.0752-.3696.1322-.1879.057-.3806.0954-.1927.0383-.3882.0575-.1955.0193-.392.0193h-12.002q-.19646 0-.39197-.0193-.19551-.0192-.3882-.0575-.19268-.0384-.38068-.0954-.188-.057-.3695-.1322-.1815-.0752-.35477-.1678-.17326-.0926-.33661-.2018-.16334-.1091-.31521-.2337-.15186-.1247-.29078-.2636-.13892-.1389-.26355-.2908-.12463-.1518-.23378-.3152-.10914-.1633-.20175-.3366-.09261-.1732-.16779-.3547-.07519-.1816-.13221-.3696-.05703-.1879-.09536-.3806-.03833-.1927-.05758-.3882-.01926-.1955-.01926-.392v-12.002q0-.19646.01926-.39197.01925-.19551.05758-.3882.03833-.19268.09536-.38068.05702-.188.13221-.3695.07518-.1815.16779-.35477.09261-.17326.20175-.33661.10915-.16334.23378-.31521.12463-.15186.26355-.29078.13892-.13892.29078-.26355.15187-.12463.31521-.23378.16335-.10914.33661-.20175.17327-.09261.35477-.16779.1815-.07519.3695-.13221.188-.05703.38068-.09536.19269-.03833.3882-.05758.19551-.01926.39197-.01926z" fill="#fff" fill-rule="evenodd"/><path d="m4.71946 2.36364h-1.09375v5.15625q-.00355.62855-.28587.95703-.28231.32848-.80433.32848-.48295 0-.78658-.26811-.30362-.26811-.30717-.71911h-1.090198q0 .61435.282316 1.04226.282315.42791.770592.65163.48829.22373 1.10263.22373 1.00142 0 1.60512-.58417.60369-.58416.60724-1.63174zm2.16442 7.2017q.41726.19176.93572.19176.67827 0 1.06889-.28054.39063-.28054.54333-.58594h.04261v.74574h1.03697v-3.62216q0-.59659-.2042-.96946-.2042-.37286-.52915-.57705-.32493-.2042-.69069-.28054-.36577-.07635-.69247-.07635-.73864 0-1.36186.32315-.62323.32315-.88956 1.06889l.99787.22727q.11718-.29119.42436-.52556.30717-.23438.84339-.23438.51492 0 .77592.25568.26101.25568.26101.72088v.02486q0 .19176-.14027.27699-.14027.08523-.44389.12251-.30362.03729-.79368.09411-.38707.04616-.75994.13317-.37287.087-.67294.26101-.30007.174-.4794.4723-.17934.29829-.17934.76349 0 .53622.24503.90732.24503.37109.66229.56285zm11.35652 0q.4173.19176.9357.19176.6783 0 1.0689-.28054.3907-.28054.5434-.58594h.0426v.74574h1.0369v-3.62216q0-.59659-.2042-.96946-.2042-.37286-.5291-.57705-.3249-.2042-.6907-.28054-.3658-.07635-.6925-.07635-.7386 0-1.3618.32315-.6233.32315-.8896 1.06889l.9979.22727q.1172-.29119.4243-.52556.3072-.23438.8434-.23438.5149 0 .7759.25568.2611.25568.2611.72088v.02486q0 .19176-.1403.27699-.1403.08523-.4439.12251-.3036.03729-.7937.09411-.3871.04616-.7599.13317-.3729.087-.673.26101-.3.174-.4794.4723-.1793.29829-.1793.76349 0 .53622.245.90732.2451.37109.6623.56285zm-1.6495-5.38352-1.978 5.45454h-1.1363l-1.9816-5.45454h1.1399l1.3814 4.19744h.0569l1.3778-4.19744zm-7.78408 4.549q-.3125.17401-.75639.17401-.451 0-.74219-.20064-.29119-.20064-.29119-.59481 0-.42614.32848-.60902.32848-.18289.79012-.24326.17401-.02486.45455-.06392.28054-.03906.53267-.09588.25213-.05682.3267-.13139v.70312q0 .32316-.16512.60547-.16513.28232-.47763.45632zm11.35658 0q-.3125.17401-.7564.17401-.451 0-.7422-.20064-.2912-.20064-.2912-.59481 0-.42614.3285-.60902.3284-.18289.7901-.24326.174-.02486.4545-.06392.2806-.03906.5327-.09588.2521-.05682.3267-.13139v.70312q0 .32316-.1651.60547-.1651.28232-.4776.45632z" fill="#fff" transform="translate(26 6)"/><g transform="translate(4 4)"><path d="m0 0h16v16h-16z" fill="none"/><g clip-path="url(#a)" fill-rule="evenodd"><path d="m7.88343 8.29934c-.33266-.53633-.574-.981-.90833-1.81833-.56533-1.41434 3.4383-2.69234 1.815-5.148.70367 1.69633-2.52567 2.745-2.82566 4.15766-.27434 1.29934 1.91733 2.80867 1.91899 2.80867z" fill="#f44336"/><path d="m7.95942 5.75665c-.064.83867.743 1.28567.76634 1.89833.01866.49867-.48234.91434-.48234.91434s.90934-.17867 1.193-.93934c.315-.84466-.61133-1.423-.516-2.09933.089-.646 2.01038-1.84767 2.01038-1.84767s-2.82704.18734-2.97138 2.07367z" fill="#f44336"/><g fill="#1565c0" transform="translate(3 8.038086)"><path d="m7.69467.313648c.58467-.131333 1.07767.241 1.07767.67 0 .967002-1.34033 1.881002-1.34033 1.881002s2.075-.24734 2.075-1.835c0-1.050002-1.019-1.312335-1.81234-.716002zm-.98499.780002s.647-.460999.81933-.633999c-1.58766.337-5.21266.382333-5.21266.089666 0-.269667 1.169-.54600012 1.169-.54600012s-2.591002-.03733318-2.591002.72700012c-.000001.796663 3.391662.853663 5.815332.363333z"/><path d="m6.31166 1.81898c-1.50301.49966-4.27134.34-3.45134-.331-.39933 0-.99133.321-.99133.62966 0 .619 2.994 1.097 5.21.19067z"/><path d="m3.22866 2.87497c-.54534 0-.89834.35133-.89834.60733 0 .797 3.25334.87734 4.54233.06834l-.81933-.544c-.963.42333-3.382.48166-2.82466-.13167z"/><path d="m9.09367 4.17264c0-.312-.35167-.459-.47767-.52933.74267 1.791-7.439 1.652-7.439.59466 0-.24033.60233-.47566 1.159-.36433l-.47333-.27967c-1.109337-.174-1.86267.31367-1.86267.707 0 1.83434 9.09367 1.746 9.09367-.12833z"/><path d="m9.99999 4.82999c-1.382 1.365-4.88633 1.86233-8.41033 1.019 3.524 1.501 8.39367.65566 8.41033-1.019z"/></g></g></g></svg>

<?xml version="1.0" encoding="utf-8"?>
<svg width="53px" height="24px" viewBox="0 0 53 24" version="1.1" xmlns:xlink="http://www.w3.org/1999/xlink" xmlns="http://www.w3.org/2000/svg">
  <defs>
    <path d="M0 0L16 0L16 16L0 16L0 0Z" id="path_1" />
    <clipPath id="mask_1">
      <use xlink:href="#path_1" />
    </clipPath>
  </defs>
  <g id="Group-47">
    <g id="Group-46">
      <path d="M5.999 0L47.001 0Q47.1483 0 47.2954 0.00722606Q47.4424 0.0144521 47.589 0.0288868Q47.7356 0.0433215 47.8812 0.0649301Q48.0269 0.0865387 48.1713 0.115269Q48.3158 0.143999 48.4586 0.179782Q48.6015 0.215565 48.7424 0.258315Q48.8833 0.301064 49.022 0.350677Q49.1607 0.40029 49.2967 0.456647Q49.4328 0.513003 49.5659 0.575968Q49.699 0.638933 49.8289 0.708354Q49.9588 0.777776 50.0851 0.853486Q50.2114 0.929196 50.3339 1.01101Q50.4563 1.09283 50.5746 1.18056Q50.6929 1.26828 50.8067 1.36171Q50.9206 1.45514 51.0297 1.55403Q51.1388 1.65293 51.2429 1.75707Q51.3471 1.8612 51.446 1.97032Q51.5449 2.07944 51.6383 2.19327Q51.7317 2.30711 51.8194 2.4254Q51.9072 2.54369 51.989 2.66613Q52.0708 2.78858 52.1465 2.9149Q52.2222 3.04121 52.2916 3.17109Q52.3611 3.30097 52.424 3.4341Q52.487 3.56722 52.5433 3.70328Q52.5997 3.83934 52.6493 3.978Q52.6989 4.11666 52.7417 4.25758Q52.7844 4.39851 52.8202 4.54136Q52.856 4.68422 52.8847 4.82865Q52.9135 4.97309 52.9351 5.11876Q52.9567 5.26444 52.9711 5.411Q52.9855 5.55755 52.9928 5.70464Q53 5.85173 53 5.999L53 18.001Q53 18.1483 52.9928 18.2954Q52.9855 18.4424 52.9711 18.589Q52.9567 18.7356 52.9351 18.8812Q52.9135 19.0269 52.8847 19.1713Q52.856 19.3158 52.8202 19.4586Q52.7844 19.6015 52.7417 19.7424Q52.6989 19.8833 52.6493 20.022Q52.5997 20.1607 52.5433 20.2967Q52.487 20.4328 52.424 20.5659Q52.3611 20.699 52.2916 20.8289Q52.2222 20.9588 52.1465 21.0851Q52.0708 21.2114 51.989 21.3339Q51.9072 21.4563 51.8194 21.5746Q51.7317 21.6929 51.6383 21.8067Q51.5449 21.9206 51.446 22.0297Q51.3471 22.1388 51.2429 22.2429Q51.1388 22.3471 51.0297 22.446Q50.9206 22.5449 50.8067 22.6383Q50.6929 22.7317 50.5746 22.8194Q50.4563 22.9072 50.3339 22.989Q50.2114 23.0708 50.0851 23.1465Q49.9588 23.2222 49.8289 23.2916Q49.699 23.3611 49.5659 23.424Q49.4328 23.487 49.2967 23.5433Q49.1607 23.5997 49.022 23.6493Q48.8833 23.6989 48.7424 23.7417Q48.6015 23.7844 48.4586 23.8202Q48.3158 23.856 48.1713 23.8847Q48.0269 23.9135 47.8812 23.9351Q47.7356 23.9567 47.589 23.9711Q47.4424 23.9855 47.2954 23.9928Q47.1483 24 47.001 24L5.999 24Q5.85173 24 5.70464 23.9928Q5.55755 23.9855 5.411 23.9711Q5.26444 23.9567 5.11876 23.9351Q4.97309 23.9135 4.82865 23.8847Q4.68422 23.856 4.54136 23.8202Q4.39851 23.7844 4.25758 23.7417Q4.11666 23.6989 3.978 23.6493Q3.83934 23.5997 3.70328 23.5433Q3.56722 23.487 3.4341 23.424Q3.30097 23.3611 3.17109 23.2916Q3.04121 23.2222 2.9149 23.1465Q2.78858 23.0708 2.66613 22.989Q2.54369 22.9072 2.4254 22.8194Q2.30711 22.7317 2.19327 22.6383Q2.07944 22.5449 1.97032 22.446Q1.8612 22.3471 1.75707 22.2429Q1.65293 22.1388 1.55403 22.0297Q1.45514 21.9206 1.36171 21.8067Q1.26829 21.6929 1.18056 21.5746Q1.09283 21.4563 1.01101 21.3339Q0.929196 21.2114 0.853486 21.0851Q0.777776 20.9588 0.708354 20.8289Q0.638933 20.699 0.575968 20.5659Q0.513003 20.4328 0.456647 20.2967Q0.40029 20.1607 0.350677 20.022Q0.301064 19.8833 0.258315 19.7424Q0.215565 19.6015 0.179782 19.4586Q0.143999 19.3158 0.115269 19.1713Q0.0865387 19.0269 0.0649301 18.8812Q0.0433215 18.7356 0.0288868 18.589Q0.0144521 18.4424 0.00722606 18.2954Q0 18.1483 0 18.001L0 5.999Q0 5.85173 0.00722606 5.70464Q0.0144521 5.55755 0.0288868 5.411Q0.0433215 5.26444 0.0649301 5.11876Q0.0865387 4.97309 0.115269 4.82865Q0.143999 4.68422 0.179782 4.54136Q0.215565 4.39851 0.258315 4.25758Q0.301064 4.11666 0.350677 3.978Q0.40029 3.83934 0.456647 3.70328Q0.513003 3.56722 0.575968 3.4341Q0.638933 3.30097 0.708354 3.17109Q0.777776 3.04121 0.853486 2.9149Q0.929196 2.78858 1.01101 2.66613Q1.09283 2.54369 1.18056 2.4254Q1.26828 2.30711 1.36171 2.19327Q1.45514 2.07944 1.55403 1.97032Q1.65293 1.8612 1.75707 1.75707Q1.8612 1.65293 1.97032 1.55403Q2.07944 1.45514 2.19327 1.36171Q2.30711 1.26829 2.4254 1.18056Q2.54369 1.09283 2.66613 1.01101Q2.78858 0.929196 2.9149 0.853486Q3.04121 0.777776 3.17109 0.708354Q3.30097 0.638933 3.4341 0.575968Q3.56722 0.513003 3.70328 0.456647Q3.83934 0.40029 3.978 0.350677Q4.11666 0.301064 4.25758 0.258315Q4.39851 0.215565 4.54136 0.179782Q4.68422 0.143999 4.82865 0.115269Q4.97309 0.0865387 5.11876 0.0649301Q5.26444 0.0433215 5.411 0.0288868Q5.55755 0.0144521 5.70464 0.00722606Q5.85173 0 5.999 0Z" id="Rectangle" fill="#1565C0" fill-rule="evenodd" stroke="none" />
      <path d="M5.999 2L18.001 2Q18.1975 2 18.393 2.01926Q18.5885 2.03851 18.7812 2.07684Q18.9739 2.11517 19.1618 2.1722Q19.3498 2.22922 19.5314 2.30441Q19.7129 2.37959 19.8861 2.4722Q20.0594 2.56481 20.2227 2.67395Q20.3861 2.7831 20.5379 2.90773Q20.6898 3.03236 20.8287 3.17128Q20.9676 3.3102 21.0923 3.46206Q21.2169 3.61393 21.326 3.77727Q21.4352 3.94062 21.5278 4.11388Q21.6204 4.28715 21.6956 4.46865Q21.7708 4.65015 21.8278 4.83815Q21.8848 5.02615 21.9232 5.21883Q21.9615 5.41152 21.9807 5.60703Q22 5.80254 22 5.999L22 18.001Q22 18.1975 21.9807 18.393Q21.9615 18.5885 21.9232 18.7812Q21.8848 18.9739 21.8278 19.1618Q21.7708 19.3498 21.6956 19.5314Q21.6204 19.7129 21.5278 19.8861Q21.4352 20.0594 21.326 20.2227Q21.2169 20.3861 21.0923 20.5379Q20.9676 20.6898 20.8287 20.8287Q20.6898 20.9676 20.5379 21.0923Q20.3861 21.2169 20.2227 21.326Q20.0594 21.4352 19.8861 21.5278Q19.7129 21.6204 19.5314 21.6956Q19.3498 21.7708 19.1618 21.8278Q18.9739 21.8848 18.7812 21.9232Q18.5885 21.9615 18.393 21.9807Q18.1975 22 18.001 22L5.999 22Q5.80254 22 5.60703 21.9807Q5.41152 21.9615 5.21883 21.9232Q5.02615 21.8848 4.83815 21.8278Q4.65015 21.7708 4.46865 21.6956Q4.28715 21.6204 4.11388 21.5278Q3.94062 21.4352 3.77727 21.326Q3.61393 21.2169 3.46206 21.0923Q3.3102 20.9676 3.17128 20.8287Q3.03236 20.6898 2.90773 20.5379Q2.7831 20.3861 2.67395 20.2227Q2.56481 20.0594 2.4722 19.8861Q2.37959 19.7129 2.30441 19.5314Q2.22922 19.3498 2.1722 19.1618Q2.11517 18.9739 2.07684 18.7812Q2.03851 18.5885 2.01926 18.393Q2 18.1975 2 18.001L2 5.999Q2 5.80254 2.01926 5.60703Q2.03851 5.41152 2.07684 5.21883Q2.11517 5.02615 2.1722 4.83815Q2.22922 4.65015 2.30441 4.46865Q2.37959 4.28715 2.4722 4.11388Q2.56481 3.94062 2.67395 3.77727Q2.7831 3.61393 2.90773 3.46206Q3.03236 3.3102 3.17128 3.17128Q3.3102 3.03236 3.46206 2.90773Q3.61393 2.7831 3.77727 2.67395Q3.94062 2.56481 4.11388 2.4722Q4.28715 2.37959 4.46865 2.30441Q4.65015 2.22922 4.83815 2.1722Q5.02615 2.11517 5.21883 2.07684Q5.41152 2.03851 5.60703 2.01926Q5.80254 2 5.999 2Z" id="Rectangle-2" fill="#FFFFFF" fill-rule="evenodd" stroke="none" />
      <g id="Java" fill="#FFFFFF" transform="translate(26 6)">
        <path d="M4.71946 2.36364L3.62571 2.36364L3.62571 7.51989Q3.62216 8.14844 3.33984 8.47692Q3.05753 8.8054 2.53551 8.8054Q2.05256 8.8054 1.74893 8.53729Q1.44531 8.26918 1.44176 7.81818L0.351562 7.81818Q0.351562 8.43253 0.633878 8.86044Q0.916193 9.28835 1.40447 9.51207Q1.89276 9.7358 2.5071 9.7358Q3.50852 9.7358 4.11222 9.15163Q4.71591 8.56747 4.71946 7.51989L4.71946 2.36364ZM6.88388 9.56534Q7.30114 9.7571 7.8196 9.7571Q8.49787 9.7571 8.88849 9.47656Q9.27912 9.19602 9.43182 8.89062L9.47443 8.89062L9.47443 9.63636L10.5114 9.63636L10.5114 6.0142Q10.5114 5.41761 10.3072 5.04474Q10.103 4.67188 9.77805 4.46769Q9.45312 4.26349 9.08736 4.18715Q8.72159 4.1108 8.39489 4.1108Q7.65625 4.1108 7.03303 4.43395Q6.4098 4.7571 6.14347 5.50284L7.14134 5.73011Q7.25852 5.43892 7.5657 5.20455Q7.87287 4.97017 8.40909 4.97017Q8.92401 4.97017 9.18501 5.22585Q9.44602 5.48153 9.44602 5.94673L9.44602 5.97159Q9.44602 6.16335 9.30575 6.24858Q9.16548 6.33381 8.86186 6.37109Q8.55824 6.40838 8.06818 6.4652Q7.68111 6.51136 7.30824 6.59837Q6.93537 6.68537 6.6353 6.85938Q6.33523 7.03338 6.1559 7.33168Q5.97656 7.62997 5.97656 8.09517Q5.97656 8.63139 6.22159 9.00249Q6.46662 9.37358 6.88388 9.56534ZM18.2404 9.56534Q18.6577 9.7571 19.1761 9.7571Q19.8544 9.7571 20.245 9.47656Q20.6357 9.19602 20.7884 8.89062L20.831 8.89062L20.831 9.63636L21.8679 9.63636L21.8679 6.0142Q21.8679 5.41761 21.6637 5.04474Q21.4595 4.67188 21.1346 4.46769Q20.8097 4.26349 20.4439 4.18715Q20.0781 4.1108 19.7514 4.1108Q19.0128 4.1108 18.3896 4.43395Q17.7663 4.7571 17.5 5.50284L18.4979 5.73011Q18.6151 5.43892 18.9222 5.20455Q19.2294 4.97017 19.7656 4.97017Q20.2805 4.97017 20.5415 5.22585Q20.8026 5.48153 20.8026 5.94673L20.8026 5.97159Q20.8026 6.16335 20.6623 6.24858Q20.522 6.33381 20.2184 6.37109Q19.9148 6.40838 19.4247 6.4652Q19.0376 6.51136 18.6648 6.59837Q18.2919 6.68537 17.9918 6.85938Q17.6918 7.03338 17.5124 7.33168Q17.3331 7.62997 17.3331 8.09517Q17.3331 8.63139 17.5781 9.00249Q17.8232 9.37358 18.2404 9.56534ZM16.5909 4.18182L14.6129 9.63636L13.4766 9.63636L11.495 4.18182L12.6349 4.18182L14.0163 8.37926L14.0732 8.37926L15.451 4.18182L16.5909 4.18182ZM8.80682 8.73082Q8.49432 8.90483 8.05043 8.90483Q7.59943 8.90483 7.30824 8.70419Q7.01705 8.50355 7.01705 8.10938Q7.01705 7.68324 7.34553 7.50036Q7.67401 7.31747 8.13565 7.2571Q8.30966 7.23224 8.5902 7.19318Q8.87074 7.15412 9.12287 7.0973Q9.375 7.04048 9.44957 6.96591L9.44957 7.66903Q9.44957 7.99219 9.28445 8.2745Q9.11932 8.55682 8.80682 8.73082ZM20.1634 8.73082Q19.8509 8.90483 19.407 8.90483Q18.956 8.90483 18.6648 8.70419Q18.3736 8.50355 18.3736 8.10938Q18.3736 7.68324 18.7021 7.50036Q19.0305 7.31747 19.4922 7.2571Q19.6662 7.23224 19.9467 7.19318Q20.2273 7.15412 20.4794 7.0973Q20.7315 7.04048 20.8061 6.96591L20.8061 7.66903Q20.8061 7.99219 20.641 8.2745Q20.4759 8.55682 20.1634 8.73082Z" />
      </g>
    </g>
    <g id="Java-icon" transform="translate(4 4)">
      <path d="M0 0L16 0L16 16L0 16L0 0Z" id="Background" fill="none" fill-rule="evenodd" stroke="none" />
      <g clip-path="url(#mask_1)">
        <path d="M7.88343 8.29934C7.55077 7.76301 7.30943 7.31834 6.9751 6.48101C6.40977 5.06667 10.4134 3.78867 8.7901 1.33301C9.49377 3.02934 6.26443 4.07801 5.96444 5.49067C5.6901 6.79001 7.88177 8.29934 7.88343 8.29934L7.88343 8.29934Z" id="Shape" fill="#F44336" fill-rule="evenodd" stroke="none" />
        <path d="M7.95942 5.75665C7.89542 6.59532 8.70242 7.04232 8.72576 7.65498C8.74442 8.15365 8.24342 8.56932 8.24342 8.56932C8.24342 8.56932 9.15276 8.39065 9.43642 7.62998C9.75142 6.78532 8.82509 6.20698 8.92042 5.53065C9.00942 4.88465 10.9308 3.68298 10.9308 3.68298C10.9308 3.68298 8.10376 3.87032 7.95942 5.75665L7.95942 5.75665Z" id="Shape" fill="#F44336" fill-rule="evenodd" stroke="none" />
        <g id="Group" transform="translate(3 8.038086)">
          <path d="M7.69467 0.313648C8.27934 0.182315 8.77234 0.554648 8.77234 0.983648C8.77234 1.95065 7.43201 2.86465 7.43201 2.86465C7.43201 2.86465 9.50701 2.61731 9.50701 1.02965C9.50701 -0.020352 8.48801 -0.282685 7.69467 0.313648L7.69467 0.313648ZM6.70968 1.09365C6.70968 1.09365 7.35668 0.632651 7.52901 0.459651C5.94135 0.796651 2.31635 0.841984 2.31635 0.549317C2.31635 0.27965 3.48535 0.00331688 3.48535 0.00331688C3.48535 0.00331688 0.894348 -0.0340163 0.894348 0.730317C0.894347 1.52698 4.28601 1.58398 6.70968 1.09365L6.70968 1.09365Z" id="Shape" fill="#1565C0" fill-rule="evenodd" stroke="none" />
          <path d="M6.31166 1.81898C4.80865 2.31864 2.04032 2.15898 2.86032 1.48798C2.46099 1.48798 1.86899 1.80898 1.86899 2.11764C1.86899 2.73664 4.86299 3.21464 7.07899 2.30831L6.31166 1.81898L6.31166 1.81898Z" id="Shape" fill="#1565C0" fill-rule="evenodd" stroke="none" />
          <path d="M3.22866 2.87497C2.68332 2.87497 2.33032 3.2263 2.33032 3.4823C2.33032 4.2793 5.58366 4.35964 6.87265 3.55064L6.05332 3.00664C5.09032 3.42997 2.67132 3.4883 3.22866 2.87497L3.22866 2.87497Z" id="Shape" fill="#1565C0" fill-rule="evenodd" stroke="none" />
          <path d="M9.09367 4.17264C9.09367 3.86064 8.742 3.71364 8.616 3.64331C9.35867 5.43431 1.177 5.29531 1.177 4.23797C1.177 3.99764 1.77933 3.76231 2.336 3.87364L1.86267 3.59397C0.753333 3.41997 0 3.90764 0 4.30097C0 6.13531 9.09367 6.04697 9.09367 4.17264L9.09367 4.17264Z" id="Shape" fill="#1565C0" fill-rule="evenodd" stroke="none" />
          <path d="M9.99999 4.82999C8.61799 6.19499 5.11366 6.69232 1.58966 5.84899C5.11366 7.34999 9.98333 6.50465 9.99999 4.82999L9.99999 4.82999Z" id="Shape" fill="#1565C0" fill-rule="evenodd" stroke="none" />
        </g>
      </g>
    </g>
  </g>
</svg>
